X:18
M:C
L:1/8
Q:1/4=140
K:C
|: G2 | c<Bc>d e>d c2 | d>^cd>e f>e d2 | g>^fg>a b>ag>f | e>dc>A (_A2G2) |!
c>Bc>d e>d c2 | d>^cd>e f>e d2 | g>^fg>a b>a g2 | (3bag (3fed c2 :|

